X:1
T:Clout the Cauldron (Donald Caird)
Z:Jack Campin: "Embro, Embro", transcription (c) 2001
F:07work/abc/CaulSMM1.abc
S:SMM 520
N:no chorus
M:C
L:1/8
Q:1/2=72
K:C
       c>AGE G>GGA|c>AGE D2 DG   |c>AGE Gfe>d|c>AGE C2C||
(c/d/)|eceg  dged |eceg  A2 Ac/d/|e>ceg dfed |c>AGE C2C|]

